X:1
T:Title
%%score 1 2 3 4
L:1/8
M:2/2
K:F
V:1 treble-8 nm="Part_1"
V:2 treble-8 nm="Part_2"
V:3 bass nm="Part_3"
V:4 bass nm="Part_4"
V:1
 z8 | z8 | z4 c3 B |[M:4/2] ABcd e f2 e f4 e4 |[M:2/2] d2 dd ^c d2 c | d2 d4 dd | _e2 dd c4 | %7
w: ||In æ-|ter- num Al- le- lu- * * ia o|quam ma- gnum di- * *|em o quam ma-|gni- fi- cum di-|
 d4 f2 _e2 | z d/d/dd c2 d2 | z2 d3 c2 B- |[M:3/2] BAG>G F2 f2 f3 c |[M:2/2] dd/d/cc/d/ e/fe/ f2 | %12
w: em o quam|ve- ne- ran- dum di- em|ce- le- bra-|* mus ho- di- e in quo e-|xul- tat e- xul- tat e- xul- * * tat|
 z4 z2 e2 | g3 e ff/d/ee/f/ | d2 g2 z4 |[M:3/2] g3 f e/d/c/B/ A2 G4 |[M:2/2] z4 z e/f/gd | %17
w: in|quo e- xul- tat e- xul- tat e-|xul- tat|om- nis ter- * * * * ra|si- ne fi- ne|
 e2 dg/g/ fd e/fe/ | f4 z4 | z8 | z4 c3 B |[M:3/2] ABcd e f2 e f4 |[M:2/2] z8 | z8 | z8 | %25
w: di- cens si- ne fi- ne di- * *|ens||in æ-|ter- num Al- le lu- * * ia||||
[M:3/2] z12 |[M:2/2] z8 | z8 | z8 | z8 | z8 |[M:3/2] d6 g2 ^f4 |[M:4/4] (6:2:6g6 f2 e4 f6 e2 d4 | %33
w: ||||||ho- di- e|ho- di- e ho- dl- e|
[M:2/4] (6:2:3c4 f4 f4 |[M:2/2] e2 f2 f4- | f4 z/ e/e/f/ge |[M:3/2] d2 d/f/f/g/ afe>f g2 f2 | %37
w: a- per- tl|sunt coe- li|* et Pa- ra- di- si|por- tæ et pa- ra di- si por- * * tæ|
[M:2/2] f4 f2 _ee |[M:4/2] d4 c4 B2 c2 c4 |[M:3/2] d2 d2 e f2 e f4 |[M:2/2] z8 | %41
w: pa- te fac- tæ|sunt qui- a * *|||
[M:4/2] z4 z2 f2 f4 g2 e2 |[M:5/2] f4 e4 z2 c3 B/A<GG/ A2 c2- |[M:2/2] ccg f/e/ d2 cc | %44
w: |* * coe- lum in- gre- di- tur Al-|* le- lu- * * * ia can-|
 d/c/d/e/ f2 ee/e/fc/d/ | e/fe/ f2 z4 | z4 c3 B |[M:3/2] ABcd e f2 e ffef | %48
w: te- * * * * mus iu- bi- le- mus di-|cen- * * tes|in æ-|ter- num Al- le- lu- * * ia Al- le- lu-|
[M:10/2] ffe>edAB>B A4 d6 c2 e f2 e f8 |] %49
w: ia Al- le- lu- ia Al- le- lu- ia Al- le- lu- * * ia|
V:2
 F3 F c2 AB | G2 F2 z2 z c/B/ | AG/F/ G2 F2 z2 |[M:4/2] z8 z4 G4 |[M:2/2] B3 A2 F E2 | D2 F4 FB | %6
w: Al- le- lu- ia Can-|te- mus Iu- bi-|e- mus di- cen- tes|O|quam ma- gnum di-|em O quam ma-|
 B3 A/G/ A B2 A | B2 F/E/F/G/ A2 G2 | z B/B/B B2 A B2 | A3 A G2 F2 |[M:3/2] E F2 E F2 A2 c3 A | %11
w: gni- fi- cum di- * *|em O * * * * quam|ve- ne- ran- dum di- em|ce- le- bre- mus|ho- * di- e in quo e-|
[M:2/2] BB/G/AA/F/ c2 F2 | c/B/A/G/FE D2 C2- | C c2 c A/G/A/B/ c2 | =B B2 c A2 c2- | %15
w: xul- tat e- xul- tat e- xul- tat|om- * * * * nis ter- ra|* si- ne fi- * * * *|ne si- ne fi- ne|
[M:3/2] c=B c2 z4 z4 |[M:2/2] z A/B/cA G c2 B | cG/A/=B c2 B c2 | F3 F c2 AB | G2 F2 z2 z c/B/ | %20
w: * di- cens|si- ne- fi- ne di- * *|cens si- ne fi- ne di- cens|* le- lu- ia Can-|te- mus Iu- bi-|
 AG/F/ G2 F2 z2 |[M:3/2] z4 z4 z2 B2 |[M:2/2] d3 A BG F2 | F2 z B2 B/B/Bd | A2 A3 dB>B | %25
w: le- mus di- cen- tes|quis-|nam est i- ste so-|nus et quæ- nam sunt hæ|vo- ces quæ ra- pi-|
[M:3/2] A2 GF c>cF c2 G2 B |[M:2/2] FGA>A D2 B>B | B2 AA/A/ GG F2 | E2 FF/F/ EE D2 | Cc d2 c2 BA | %30
w: unt cor- da ho- mi- num et a- ni-|mas li- que- sce- re fa- ci-|unt cer- te coe- le- stes ci-|ves cer- te coe- le- stes ci-|ves in ter- ra de- scen|
 GFE>E D4 |[M:3/2] B6 c2 A4 |[M:4/4] (6:2:4z12 A6 A2 F4 |[M:2/4] (6:2:3A4 A4 A4 | %34
w: de- runt ca- ne- re|ho- di- e|ho- di- e|a- per- ti|
[M:2/2] cGAA d2 c2 | d2 z/ A/A/B/ c2 G2 |[M:3/2] z/ B/B/c/dA A/G/A/B/ c2 B4 |[M:2/2] c4 d2 Bc | %38
w: sunt a- per- ti sunt coe-|li et Pa- ra- di- si|et Pa- ra- di- si por- * * * * tæ|pa- te- fac- tæ|
[M:4/2] F4 A4 F2 .A2 A4 |[M:3/2] A2 B3 A G2 F2 .A2 |[M:2/2] c2 A2 dc B2- | %41
w: sunt qui- a * *|||
[M:4/2] B2 A2 B2 d2 d4 d2 c2 |[M:5/2] c4 c4 A3 G/F/E F2 E F4 |[M:2/2] z8 | F3 F c2 AA | %45
w: |* * Coe- lum in- gre- * di- tur||Al- le- lu- ia Can-|
 G2 F2 z2 z c/B/ | AG/F/ G2 F2 z2 |[M:3/2] z2 c3 A G2 FA/B/ c/B/A/G/ | %48
w: te- mus Iu- bi-|le- mus di- cen- tes|in æ- ter- num in æ- ter- * * *|
[M:10/2] A2 A G2 F2 E F4 F6 F2 G4 A8 |] %49
w: * num Al- le- lu- ia Al- le- lu- ia|
V:3
 z8 | z2 z F,/E,/ D,C,/B,,/ C,2 | F,,2 z C,/B,,/ A,,A,,/G,,/ C,2 |[M:4/2] F,,4 z8 C,4 | %4
w: |Iu- bi- le- mus di- cen-|tes iu- bi- le- mus di- cen-|tes O|
[M:2/2] G,,2 G,,D, A,,4 | D,2 B,,4 B,,B,, | _E,2 B,,B,, F,,4 | B,,4 F,2 C,2 | %8
w: quam ma- gnum di-|em O quam ma-|gni- fi- cum di-|em O quam|
 z G,/G,/G,B, F,2 B,,2 | F,3 F, _E,2 D,2 |[M:3/2] C,3 C, F,,8 |[M:2/2] z8 | z8 | z4 z2 C,2 | %14
w: ve- ne- ran- dum di- em|ce- le- bra- mus|ho- di- e||||
 G,3 E, F,F,/D,/_E,E,/C,/ |[M:3/2] G,2 C,2 C/B,/A,/G,/ F,/E,/D,/C,/ B,,A,, G,,2 | %16
w: quo e- xul- tat e- xul- tat e-|xul- tat om- * * * * * * * * nis ter-|
[M:2/2] F,,2 z A,,/B,,/ C,A,, G,,2 | C,E,/F,/G,E, D,2 C,2 | z8 | z2 z F,/E,/ D,C,/B,,/ C,2 | %20
w: ra si- ne fi- ne di-|cens si- ne fi- ne di- cens||Iu- bi- le- mus di- cen-|
 F,,2 z C,/B,,/ A,,A,,/G,,/ C,2 |[M:3/2] F,,4 z4 z4 |[M:2/2] z8 | z8 | z8 |[M:3/2] z12 | %26
w: tes iu- bi- le- mus di- cen-|tes|||||
[M:2/2] z8 | z8 | z8 | z8 | z8 |[M:3/2] G,6 E,2 D,4 |[M:4/4] (6:2:6_E,6 D,2 C,4 D,6 C,2 B,,4 | %33
w: |||||ho- di- e|ho- di- e ho- dl- e|
[M:2/4] (6:2:3F,4 D,4 D,4 |[M:2/2] C,/B,,/A,,/G,,/ F,,2 B,,/C,/D,/E,/ F,/G,/A,/F,/ | %35
w: a- per- tl|sunt * * * * coe- * * * * * * *|
 B,2 B,/F,/F,/G,/ A,2 E,2 |[M:3/2] G,2 D,/D,/D,/E,/ F,2 C,2 _E,2 B,,2 |[M:2/2] F,4 D,2 _E,C, | %38
w: * li et Pa- ra- di- si|por- tæ et Pa- ra- di- si por- tæ|pa- te- fac- tæ|
[M:4/2] B,,4 F,4 B,,2 F,2 F,4 |[M:3/2] D,2 B,,2 C,4 F,,2 F,2 |[M:2/2] F,4 D,2 _E,2 | %41
w: sunt qui- a * *|||
[M:4/2] C,4 B,,2 B,2 B,4 G,2 A,2 |[M:5/2] F,4 C,4 F,3 E,/D,/ C,3 C, F,,4 |[M:2/2] C,3 C, G,2 E,F, | %44
w: |* * Coe- lum in- gre- die- tur|Al- le- lu- ia can-|
 D,3/2 C,/B,,/C,/D,/B,,/ C,2 F,,2 | z2 z F,/E,/ D,C,/B,,/ C,2 | F,,2 z C,/B,,/ A,,A,,/G,,/ C,2 | %47
w: te- * * * * * * mus|Iu- bi- le- mus di- cen-|tes iu- bi- le mus di- cen-|
[M:3/2] F,,4 z4 z F,/G,/ A,/G,/F,/E,/ |[M:10/2] D,2 C,2 B,,A,, G,,2 F,,4 B,,6 A,,2 C,4 F,,8 |] %49
w: tes in æ- ter- * * *|* num Al- le- lu- ia Al- le- lu- ia|
V:4
 F,3 F, C2 A,B, | G,2 F,F,/E,/D,C,/B,,/ C,2 | F,,2 C,C,/B,,/A,,A,,/G,,/ C,2 | %3
[M:4/2] F,,4 C,4 F,,4 C,4 |[M:2/2] G,,2 G,,D, A,,4 | D,2 B,,4 B,,B,, | _E,2 B,,2 F,,4 | %7
 B,,4 F,2 C,2 | z G,/G,/G,B, F,2 B,,2 | F,2 F,2 _E,2 D,2 |[M:3/2] C,4 F,,4 F,3 F, | %11
[M:2/2] B,B,/G,/A,A,/F,/ C2 F,2 | C/B,/A,/G,/F,E, D,2 C,2 | C,3 C, D,2 C,2 | %14
 G,3 E, F,F,/D,/_E,E,/C,/ |[M:3/2] G,2 C,2 C/B,/A,/G,/ F,/E,/D,/C,/ B,,A,, G,,2 | %16
[M:2/2] F,,3 A,,/B,,/C,A,, G,,2 | C,E,/F,/G,E, D,2 C,2 | F,3 F, C2 A,B, | %19
 G,2 F,F,/E,/D,C,/B,,/ C,2 | F,,2 C,C,/B,,/A,,A,,/G,,/ C,2 |[M:3/2] F,,4 C,4 F,,2 B,,2 | %22
[M:2/2] D3 A,B,G, F,2 | F,2 z B,2 B,/B,/B,D | A,2 A,3 D B,>B, |[M:3/2] A,2 G,F,C>CF, C2 G,2 B, | %26
[M:2/2] F,G,A,>A, D,2 B,>B, | B,2 A,A,/A,/G,G, F,2 | E,2 F,F,/F,/E,E, D,2 | C,C D2 C2 B,A, | %30
 G,D,A,,>A,, D,4 |[M:3/2] G,6 E,2 D,4 |[M:4/4] (6:2:6_E,6 D,2 C,4 D,6 C,2 B,,4 | %33
[M:2/4] (6:2:3F,4 D,4 D,4 |[M:2/2] C,/B,,/A,,/G,,/ F,,2 B,,/C,/D,/E,/ F,/G,/A,/F,/ | %35
 B,2 B,/F,/F,/G,/ A,2 E,2 |[M:3/2] G,2 D,/D,/D,/E,/ F,2 C,2 _E,2 B,,2 |[M:2/2] F,4 D,2 _E,C, | %38
[M:4/2] B,,4 F,,4 B,,2 F,,2 F,4 |[M:3/2] D,2 B,,2 C,4 F,,2 F,2 |[M:2/2] F,4 D,2 _E,2 | %41
[M:4/2] C,4 B,,2 B,2 B,4 G,2 A,2 |[M:5/2] F,4 C,4 F,3 E,/D,/ C,4 F,,4 |[M:2/2] C,3 C, G,2 E,F, | %44
 D,>C,B,,/C,/D,/B,,/ C,2 F,,2 | C,2 F,,F,/E,/D,C,/B,,/ C,2 | F,,2 C,C,/B,,/A,,A,,/G,,/ C,2 | %47
[M:3/2] F,,4 C,4 F,,F,/G,/A,/G,/F,/E,/ |[M:10/2] D,2 C,2 B,,A,, G,,2 F,,4 B,,6 A,,2 C,4 F,,8 |] %49

